P3
# Grayscale chest atlas: wood grain in columns 0-11, neutral material in 12-15.
16 8
255
64 64 64   72 72 72   61 61 61   75 75 75   68 68 68   63 63 63   73 73 73   66 66 66   78 78 78   65 65 65   72 72 72   67 67 67   248 248 248   248 248 248   248 248 248   248 248 248
186 186 186   174 174 174   191 191 191   179 179 179   168 168 168   184 184 184   176 176 176   189 189 189   171 171 171   182 182 182   175 175 175   187 187 187   248 248 248   248 248 248   248 248 248   248 248 248
157 157 157   168 168 168   152 152 152   173 173 173   160 160 160   149 149 149   166 166 166   157 157 157   175 175 175   162 162 162   151 151 151   169 169 169   248 248 248   248 248 248   248 248 248   248 248 248
107 107 107   119 119 119   98 98 98   125 125 125   111 111 111   101 101 101   117 117 117   104 104 104   122 122 122   112 112 112   100 100 100   118 118 118   248 248 248   248 248 248   248 248 248   248 248 248
54 54 54   62 62 62   51 51 51   65 65 65   58 58 58   52 52 52   64 64 64   56 56 56   68 68 68   55 55 55   62 62 62   57 57 57   248 248 248   248 248 248   248 248 248   248 248 248
176 176 176   163 163 163   181 181 181   169 169 169   158 158 158   174 174 174   166 166 166   180 180 180   160 160 160   172 172 172   165 165 165   178 178 178   248 248 248   248 248 248   248 248 248   248 248 248
143 143 143   154 154 154   137 137 137   159 159 159   146 146 146   135 135 135   151 151 151   142 142 142   162 162 162   148 148 148   138 138 138   156 156 156   248 248 248   248 248 248   248 248 248   248 248 248
112 112 112   123 123 123   105 105 105   130 130 130   116 116 116   106 106 106   122 122 122   110 110 110   127 127 127   118 118 118   107 107 107   124 124 124   248 248 248   248 248 248   248 248 248   248 248 248
